X:70
T:Mason's Apron, The
C:Traditional
M:4/4
L:1/8
Q:1/8=390
K:A
|:c2A2 ABAF|EFAB cABc|d2B2 BcBA|GABc defg|
a2A2 cBAF|EFAB cABc|dcde fgaf|1 edcB A3B:|2 edcB A2ed|
|:c2ec fcec|Acec fedc|d2fd gdfd|d2fd gfed|
c2ec fcec|Acec fedc|dcde fgaf|1edcB A2ed:|2edcB A4|
